X:2755
L:1/8
M:6/8
K:G
 G | Bdd d2 b/g/ | g<ed B2 G/G/ | Bdd d2 e/f/ | gBc d2 d/d/ | e>fg ^G2 G/G/ | Ace F2 F/F/ | 
 G>GG d2 d/c/ | BGG G2 d/d/ | gfg aba | gfg aba | gfe dBG | BAA A2 d/d/ | e>fg G<GG | Ace F<FF | 
 GBd def | gBc d2 d | e<gd dcB | A3 B3 | B<Gg d<BA | (G3 G2) ||

